X: 2341
T: Bag Of Spuds, The
R: reel
M: 4/4
K: Adorian
G|:A2eA BAeA|ABcd eAdB|G2dG BGdB|GB~B2 GBdB|
A2eA BAeA|ABcd eAdB|ABcd efge|dBGA BAA2:|
|:~a2e ~a ageg|agbg agef|gedc BGB/c/d|~g2 ga bgeg|
~a2e ~a ageg|agbg ageg|~d2 de ~g3e|dBGA BAA2:|

